X:1
T:O quam tu pulchra
T:Alessandro Grandi
T:Source : Ghirlanda Sacra---Venetia---Ang.Gardano (B.Magni)---1625. Editor : André Vierendeels (24/12/16).
T:Notes : Original clefs : C1, F4 Oruginal note values have been halved in 3-beat measures Figures in BC are notated in original print Dotted brackets indicate black notes Music collected by Leonardo Simonetti  
T:O quam tu pulchra 
T:©
T:©
T:©
T:©
T:©
T:©
T:©
C:Alessandro Grandi
Z:©
%%score 1 2
L:1/8
Q:1/4=102
M:4/4
K:F
V:1 treble nm="Soprano" snm="S"
V:2 bass nm="MusicXML Part"
V:1
 z4 d4- | d4 cBAG | A8 | z4 f4- | f4 _edcB | c8 | z f f>f f>e e>d | dd/d/ d>d d>c c>B | %8
w: O|_ quam tu pul- chra|es,|O|_ quam tu pul- chra|es,|quam pul- chra es a- mi- ca|me- a, quam pul- chra es, co- lum- ba|
 BB/c/ c>c c>B B>A | AA z2 d4- | d4 cBAG | !fermata!A8 | z4 A2 Bc | dc_ed c4 | BFGA BBcd | %15
w: me- a, quam pul- chra es for- mo- sa|me- a, O|_ quam tu pul- chra|es!|o- cu- li|tu- i co- lum- ba-|rum, ca- pil- li tu- i sic- ut|
 _e2 ed d4 | cGAB ccde | f2 fe e4 | d4 d4- | d4 cBAG | !fermata!A8 |[M:6/4] d4 A2 B2 B2 c2 | %22
w: gre- ges ca- pra-|rum et den- tes tu- i si- cut|gre- ges ton- sa-|rum, O|_ quam tu pul- chra|es!|Ve- ni, ve- ni de|
 A3 A A2 f4 c2 | d2 d2 _e2 c3 c c2 | A2 A2 c2 c4 =B2 | c2 c2 c2 c4 =B2 | c2 c2 c2 c4 =B2 | %27
w: Li- ba- no, ve- ni,|ve- ni de Li- ba- no,|ve- ni a- mi- ca|me- a, co- lum- ba|me- a, for- mo- sa|
[M:3/4] c2 c2 z2 |[M:4/4] z4 d4- | d4 cBAG | A2 dc _edcB | A>B c>B A3 G | !fermata!G8 | %33
w: me- a,|O|_ quam tu pul- chra|es, ve- ni, ve- ni co- ro-|na- * * * * be-|ris!|
[M:6/4] G4 A2 B4 c2 | d3 d d2 F4 F2 | F4 E2 F4 F2 | c2 c2 c2 c4 =B2 | c4 c2 d2 dddd | %38
w: Sur- ge, sur- ge|pro- pe- ra, sur- ge,|spon- sa me- a,|sur- ge di- le- cta|me- a, sur- ge im- ma- cu-|
 d4 ^c2 d4 d2 |[M:4/4] z4 d2 A2 | BAcB A4 | G4 d2 A2 | BAcB A4 | G8 ||[K:C] z4 B4 | B2 e2 B2 c2 | %46
w: la- ta me- a,|sur- ge,|ve- ni, ve- ni, ve-|ni, sur- ge,|ve- ni, ve- ni, ve-|ni,|qui-|a a- mo- re|
 ^G4 A4- | A4 ^G4 | A8 | z2 F2 F3 E | E4 D4- | D4 ^C4 | !fermata!D8 |[K:F] z4 d2 A2 | BAcB A4 | %55
w: lan- *|* gue-|o,|a- mo- re|lan- *|* ge-|o.|Sur- ge,|ve- ni, ve- ni, ve-|
 G4 d2 A2 | BAcB A4 | G4 c4 | A4 z2 B2 | B4 G4 | z4 E4 | ^F3 F G4- | G4 ^F4 | !fermata!G8 |] %64
w: ni, sur- ge,|ve- ni, ve- nin ve-|ni, qui-|a a-|mo- re,|a-|mo- re lan-|* gue-|o.|
V:2
"^BC" G,8 | _E,8 |"^#" D,8 | B,,8 | G,,8 | F,,8 | F,,4 G,,2 A,,2 | B,,2 D,2 E,2 ^F,2 | %8
 G,2 A,,2 B,,2 C,2 |"^#" D,8 | _E,8 | !fermata!D,8 | D,6 C,2 | B,,2 _E,2 F,4 | B,,2 A,,2 G,2 F,2 | %15
 _E,2 C,2 G,,4 | C,2 B,,2 A,,2 G,,2 | F,2 D,2 A,,4 | D,4 B,,4 | _E,8 | !fermata!D,8 | %21
[M:6/4] D,4 ^F,2 G,4 _E,2 |"^#" D,6 B,,4 F,2 | B,,4 _E,2 F,4 F,2 | F,4 E,2 F,2 G,4 | %25
 C,4 E,2 F,2 G,4 | C,4 E,2 F,2 G,4 |[M:3/4] C,6 |[M:4/4] B,,8 | _E,8 |"^#""^b" D,2 B,,2 C,4 | %31
"^#" D,8 | !fermata!G,,8 |[M:6/4] G,4 ^F,2 G,4 =F,2 | B,,4 B,,2 B,,4 A,,2 | B,,4 C,2 F,,4 F,,2 | %36
 F,4 E,2 F,4 G,2 | C,4 C,2 B,,4 ^F,,2 | G,,4 A,,2 D,4 D,2 |[M:4/4] ^F,8 | G,2 _E,2 C,2 D,2 | %41
 G,,2 G,2 ^F,4 | G,2 _E,2 C,2 D,2 | G,,8 ||[K:C]"^#" E,8- | E,8- | E,4 C,4 | B,,8 |"^#" A,,8 | %49
 _B,,8 |"^b" G,,8 | A,,8 | !fermata!D,8 |[K:F] z4 ^F,4 | G,2 _E,2 C,2 D,2 | G,,2 G,2 ^F,4 | %56
 G,2 _E,2 C,2 D,2 | G,4 E,4 |"^6" F,4 D,4 |"^6" D,4 _E,4 | C,8 |"^4#" C,4 B,,4 | A,,8 | %63
 !fermata!G,,8 |] %64

